templates/flag_icons/sa.svg

<?xml version="1.0" encoding="UTF-8" standalone="no"?>
<svg width="23px" height="17px" viewBox="0 0 23 17" version="1.1" xmlns="http://www.w3.org/2000/svg" xmlns:xlink="http://www.w3.org/1999/xlink">
    <!-- Generator: Sketch 3.7.2 (28276) - http://www.bohemiancoding.com/sketch -->
    <title>SA</title>
    <desc>Created with Sketch.</desc>
    <defs>
        <linearGradient x1="50%" y1="0%" x2="50%" y2="100%" id="linearGradient-1">
            <stop stop-color="#FFFFFF" offset="0%"></stop>
            <stop stop-color="#F0F0F0" offset="100%"></stop>
        </linearGradient>
        <filter x="-50%" y="-50%" width="200%" height="200%" filterUnits="objectBoundingBox" id="filter-2">
            <feMorphology radius="0.25" operator="dilate" in="SourceAlpha" result="shadowSpreadOuter1"></feMorphology>
            <feOffset dx="0" dy="0" in="shadowSpreadOuter1" result="shadowOffsetOuter1"></feOffset>
            <feColorMatrix values="0 0 0 0 0   0 0 0 0 0   0 0 0 0 0  0 0 0 0.06 0" type="matrix" in="shadowOffsetOuter1" result="shadowMatrixOuter1"></feColorMatrix>
            <feMerge>
                <feMergeNode in="shadowMatrixOuter1"></feMergeNode>
                <feMergeNode in="SourceGraphic"></feMergeNode>
            </feMerge>
        </filter>
        <rect id="path-3" x="0" y="0" width="21" height="15" rx="1.5"></rect>
        <filter x="-50%" y="-50%" width="200%" height="200%" filterUnits="objectBoundingBox" id="filter-5">
            <feOffset dx="0" dy="0.5" in="SourceAlpha" result="shadowOffsetOuter1"></feOffset>
            <feGaussianBlur stdDeviation="0.5" in="shadowOffsetOuter1" result="shadowBlurOuter1"></feGaussianBlur>
            <feColorMatrix values="0 0 0 0 0   0 0 0 0 0   0 0 0 0 0  0 0 0 0.16 0" type="matrix" in="shadowBlurOuter1"></feColorMatrix>
        </filter>
        <linearGradient x1="50%" y1="0%" x2="50%" y2="100%" id="linearGradient-6">
            <stop stop-color="#128C4A" offset="0%"></stop>
            <stop stop-color="#0B6C38" offset="100%"></stop>
        </linearGradient>
        <path d="M5,9 L13,9 L13,8.00783157 C13,7.72736394 13.1928101,7.59640503 13.453186,7.72659302 L14,8 L14,9 L15.4953156,9 C15.7740451,9 16,9.21403503 16,9.50468445 L16,10 C16,10.5522847 15.5573397,11 15.0010434,11 L13.495389,11 C13.2217932,11 13,10.7680664 13,10.5 L13,10 L6.50342274,10 C6.22539004,10 5.84375,9.84375 5.65024853,9.65024853 L5,9 Z" id="path-7"></path>
        <filter x="-50%" y="-50%" width="200%" height="200%" filterUnits="objectBoundingBox" id="filter-8">
            <feOffset dx="0" dy="0.5" in="SourceAlpha" result="shadowOffsetOuter1"></feOffset>
            <feColorMatrix values="0 0 0 0 0   0 0 0 0 0   0 0 0 0 0  0 0 0 0.06 0" type="matrix" in="shadowOffsetOuter1"></feColorMatrix>
        </filter>
        <path d="M5,6.25234222 C5,6.11297746 5.078125,5.921875 5.18051147,5.81948853 L5.31948853,5.68051147 C5.41918226,5.58081774 5.421875,5.421875 5.31948853,5.31948853 L5.18051147,5.18051147 C5.08081774,5.08081774 5,4.89298248 5,4.74765778 L5,4.25234222 C5,4.11297746 5.10701752,4 5.25234222,4 L5.74765778,4 C5.88702254,4 6,4.10701752 6,4.25234222 L6,4.74765778 C6,4.88702254 6.04614258,4.90771484 6.1159668,4.76806641 L6.3840332,4.23193359 C6.4480799,4.10384021 6.61770248,4 6.74769449,4 L7.75230551,4 C7.8891034,4 8,4.1159668 8,4.25 L8,4.25 C8,4.38807119 7.89298248,4.5 7.74765778,4.5 L7.25234222,4.5 C7.11297746,4.5 7,4.6159668 7,4.75 L7,4.75 C7,4.88807119 7.10701752,5 7.25234222,5 L7.74765778,5 C7.88702254,5 8,5.10752869 8,5.24523926 L8,6.75476074 C8,6.89020264 7.89298248,7 7.74765778,7 L7.25234222,7 C7.11297746,7 7,6.89298248 7,6.74765778 L7,6.25234222 C7,6.11297746 7.1159668,6 7.25,6 L7.25,6 C7.38807119,6 7.5,5.8840332 7.5,5.75 L7.5,5.75 C7.5,5.61192881 7.39298248,5.5 7.24765778,5.5 L6.75234222,5.5 C6.61297746,5.5 6.5,5.61770248 6.5,5.74769449 L6.5,6.75230551 C6.5,6.8891034 6.3840332,7 6.25,7 L6.25,7 C6.11192881,7 6,6.89298248 6,6.74765778 L6,6.25234222 C6,6.11297746 5.8840332,6 5.75,6 L5.75,6 C5.61192881,6 5.5,6.10701752 5.5,6.25234222 L5.5,6.74765778 C5.5,6.88702254 5.3840332,7 5.25,7 L5.25,7 C5.11192881,7 5,6.89298248 5,6.74765778 L5,6.25234222 Z" id="path-9"></path>
        <filter x="-50%" y="-50%" width="200%" height="200%" filterUnits="objectBoundingBox" id="filter-10">
            <feOffset dx="0" dy="0.5" in="SourceAlpha" result="shadowOffsetOuter1"></feOffset>
            <feColorMatrix values="0 0 0 0 0   0 0 0 0 0   0 0 0 0 0  0 0 0 0.06 0" type="matrix" in="shadowOffsetOuter1"></feColorMatrix>
        </filter>
        <path d="M13,6.25234222 C13,6.11297746 13.078125,5.921875 13.1805115,5.81948853 L13.3194885,5.68051147 C13.4191823,5.58081774 13.421875,5.421875 13.3194885,5.31948853 L13.1805115,5.18051147 C13.0808177,5.08081774 13,4.89298248 13,4.74765778 L13,4.25234222 C13,4.11297746 13.1070175,4 13.2523422,4 L13.7476578,4 C13.8870225,4 14,4.10701752 14,4.25234222 L14,4.74765778 C14,4.88702254 14.0461426,4.90771484 14.1159668,4.76806641 L14.3840332,4.23193359 C14.4480799,4.10384021 14.6177025,4 14.7476945,4 L15.7523055,4 C15.8891034,4 16,4.1159668 16,4.25 L16,4.25 C16,4.38807119 15.8929825,4.5 15.7476578,4.5 L15.2523422,4.5 C15.1129775,4.5 15,4.6159668 15,4.75 L15,4.75 C15,4.88807119 15.1070175,5 15.2523422,5 L15.7476578,5 C15.8870225,5 16,5.10752869 16,5.24523926 L16,6.75476074 C16,6.89020264 15.8929825,7 15.7476578,7 L15.2523422,7 C15.1129775,7 15,6.89298248 15,6.74765778 L15,6.25234222 C15,6.11297746 15.1159668,6 15.25,6 L15.25,6 C15.3880712,6 15.5,5.8840332 15.5,5.75 L15.5,5.75 C15.5,5.61192881 15.3929825,5.5 15.2476578,5.5 L14.7523422,5.5 C14.6129775,5.5 14.5,5.61770248 14.5,5.74769449 L14.5,6.75230551 C14.5,6.8891034 14.3840332,7 14.25,7 L14.25,7 C14.1119288,7 14,6.89298248 14,6.74765778 L14,6.25234222 C14,6.11297746 13.8840332,6 13.75,6 L13.75,6 C13.6119288,6 13.5,6.10701752 13.5,6.25234222 L13.5,6.74765778 C13.5,6.88702254 13.3840332,7 13.25,7 L13.25,7 C13.1119288,7 13,6.89298248 13,6.74765778 L13,6.25234222 Z" id="path-11"></path>
        <filter x="-50%" y="-50%" width="200%" height="200%" filterUnits="objectBoundingBox" id="filter-12">
            <feOffset dx="0" dy="0.5" in="SourceAlpha" result="shadowOffsetOuter1"></feOffset>
            <feColorMatrix values="0 0 0 0 0   0 0 0 0 0   0 0 0 0 0  0 0 0 0.06 0" type="matrix" in="shadowOffsetOuter1"></feColorMatrix>
        </filter>
        <path d="M12,4.74765778 C12,4.88702254 11.921875,5.078125 11.8194885,5.18051147 L11.6805115,5.31948853 C11.5808177,5.41918226 11.578125,5.578125 11.6805115,5.68051147 L11.8194885,5.81948853 C11.9191823,5.91918226 12,6.10701752 12,6.25234222 L12,6.74765778 C12,6.88702254 11.8929825,7 11.7476578,7 L11.2523422,7 C11.1129775,7 11,6.89298248 11,6.74765778 L11,6.25234222 C11,6.11297746 10.9538574,6.09228516 10.8840332,6.23193359 L10.6159668,6.76806641 C10.5519201,6.89615979 10.3822975,7 10.2523055,7 L9.24769449,7 C9.1108966,7 9,6.8840332 9,6.75 L9,6.75 C9,6.61192881 9.10701752,6.5 9.25234222,6.5 L9.74765778,6.5 C9.88702254,6.5 10,6.3840332 10,6.25 L10,6.25 C10,6.11192881 9.89298248,6 9.74765778,6 L9.25234222,6 C9.11297746,6 9,5.89247131 9,5.75476074 L9,4.24523926 C9,4.10979736 9.10701752,4 9.25234222,4 L9.74765778,4 C9.88702254,4 10,4.10701752 10,4.25234222 L10,4.74765778 C10,4.88702254 9.8840332,5 9.75,5 L9.75,5 C9.61192881,5 9.5,5.1159668 9.5,5.25 L9.5,5.25 C9.5,5.38807119 9.60701752,5.5 9.75234222,5.5 L10.2476578,5.5 C10.3870225,5.5 10.5,5.38229752 10.5,5.25230551 L10.5,4.24769449 C10.5,4.1108966 10.6159668,4 10.75,4 L10.75,4 C10.8880712,4 11,4.10701752 11,4.25234222 L11,4.74765778 C11,4.88702254 11.1159668,5 11.25,5 L11.25,5 C11.3880712,5 11.5,4.89298248 11.5,4.74765778 L11.5,4.25234222 C11.5,4.11297746 11.6159668,4 11.75,4 L11.75,4 C11.8880712,4 12,4.10701752 12,4.25234222 L12,4.74765778 L12,4.74765778 Z" id="path-13"></path>
        <filter x="-50%" y="-50%" width="200%" height="200%" filterUnits="objectBoundingBox" id="filter-14">
            <feOffset dx="0" dy="0.5" in="SourceAlpha" result="shadowOffsetOuter1"></feOffset>
            <feColorMatrix values="0 0 0 0 0   0 0 0 0 0   0 0 0 0 0  0 0 0 0.06 0" type="matrix" in="shadowOffsetOuter1"></feColorMatrix>
        </filter>
    </defs>
    <g id="Flag-Kit" stroke="none" stroke-width="1" fill="none" fill-rule="evenodd">
        <g id="SA">
            <g id="BF-Copy-5" filter="url(#filter-2)" transform="translate(1.000000, 1.000000)">
                <mask id="mask-4" fill="white">
                    <use xlink:href="#path-3"></use>
                </mask>
                <g id="Mask">
                    <use fill="black" fill-opacity="1" filter="url(#filter-5)" xlink:href="#path-3"></use>
                    <use fill="url(#linearGradient-1)" fill-rule="evenodd" xlink:href="#path-3"></use>
                </g>
                <rect id="Mask-Copy" fill="url(#linearGradient-6)" mask="url(#mask-4)" x="0" y="0" width="21" height="15"></rect>
                <g id="Rectangle-455" mask="url(#mask-4)">
                    <use fill="black" fill-opacity="1" filter="url(#filter-8)" xlink:href="#path-7"></use>
                    <use fill="url(#linearGradient-1)" fill-rule="evenodd" xlink:href="#path-7"></use>
                </g>
                <g id="Rectangle-456" mask="url(#mask-4)">
                    <use fill="black" fill-opacity="1" filter="url(#filter-10)" xlink:href="#path-9"></use>
                    <use fill="url(#linearGradient-1)" fill-rule="evenodd" xlink:href="#path-9"></use>
                </g>
                <g id="Rectangle-456" mask="url(#mask-4)">
                    <use fill="black" fill-opacity="1" filter="url(#filter-12)" xlink:href="#path-11"></use>
                    <use fill="url(#linearGradient-1)" fill-rule="evenodd" xlink:href="#path-11"></use>
                </g>
                <g id="Rectangle-456" mask="url(#mask-4)">
                    <use fill="black" fill-opacity="1" filter="url(#filter-14)" xlink:href="#path-13"></use>
                    <use fill="url(#linearGradient-1)" fill-rule="evenodd" xlink:href="#path-13"></use>
                </g>
                <rect id="Depth" mask="url(#mask-4)" x="0" y="0" width="21" height="15" rx="1.5"></rect>
            </g>
        </g>
    </g>
</svg>

<svg width="23" height="17" viewBox="0 0 23 17" xmlns="http://www.w3.org/2000/svg" xmlns:xlink="http://www.w3.org/1999/xlink"><title>SA</title><defs><linearGradient x1="50%" y1="0%" x2="50%" y2="100%" id="d"><stop stop-color="#FFF" offset="0%"/><stop stop-color="#F0F0F0" offset="100%"/></linearGradient><filter x="-50%" y="-50%" width="200%" height="200%" filterUnits="objectBoundingBox" id="a"><feMorphology radius=".25" operator="dilate" in="SourceAlpha" result="shadowSpreadOuter1"/><feOffset in="shadowSpreadOuter1" result="shadowOffsetOuter1"/><feColorMatrix values="0 0 0 0 0 0 0 0 0 0 0 0 0 0 0 0 0 0 0.06 0" in="shadowOffsetOuter1" result="shadowMatrixOuter1"/><feMerge><feMergeNode in="shadowMatrixOuter1"/><feMergeNode in="SourceGraphic"/></feMerge></filter><rect id="b" width="21" height="15" rx="1.5"/><filter x="-50%" y="-50%" width="200%" height="200%" filterUnits="objectBoundingBox" id="c"><feOffset dy=".5" in="SourceAlpha" result="shadowOffsetOuter1"/><feGaussianBlur stdDeviation=".5" in="shadowOffsetOuter1" result="shadowBlurOuter1"/><feColorMatrix values="0 0 0 0 0 0 0 0 0 0 0 0 0 0 0 0 0 0 0.16 0" in="shadowBlurOuter1"/></filter><linearGradient x1="50%" y1="0%" x2="50%" y2="100%" id="e"><stop stop-color="#128C4A" offset="0%"/><stop stop-color="#0B6C38" offset="100%"/></linearGradient><path d="M5 9h8V8c0-.27.2-.4.45-.27L14 8v1h1.5c.27 0 .5.21.5.5v.5a1 1 0 0 1-1 1h-1.5a.5.5 0 0 1-.5-.5V10H6.5a1.4 1.4 0 0 1-.85-.35L5 9z" id="h"/><filter x="-50%" y="-50%" width="200%" height="200%" filterUnits="objectBoundingBox" id="g"><feOffset dy=".5" in="SourceAlpha" result="shadowOffsetOuter1"/><feColorMatrix values="0 0 0 0 0 0 0 0 0 0 0 0 0 0 0 0 0 0 0.06 0" in="shadowOffsetOuter1"/></filter><path d="M5 6.25a.7.7 0 0 1 .18-.43l.14-.14c.1-.1.1-.26 0-.36l-.14-.14A.69.69 0 0 1 5 4.75v-.5c0-.14.1-.25.25-.25h.5c.14 0 .25.1.25.25v.5c0 .14.05.16.12.02l.26-.54A.46.46 0 0 1 6.75 4h1c.14 0 .25.12.25.25 0 .14-.1.25-.25.25h-.5a.25.25 0 0 0-.25.25c0 .14.1.25.25.25h.5c.14 0 .25.1.25.25v1.5c0 .14-.1.25-.25.25h-.5A.25.25 0 0 1 7 6.75v-.5c0-.14.12-.25.25-.25.14 0 .25-.12.25-.25 0-.14-.1-.25-.25-.25h-.5a.25.25 0 0 0-.25.25v1c0 .14-.12.25-.25.25A.25.25 0 0 1 6 6.75v-.5A.25.25 0 0 0 5.75 6c-.14 0-.25.1-.25.25v.5c0 .14-.12.25-.25.25A.25.25 0 0 1 5 6.75v-.5z" id="j"/><filter x="-50%" y="-50%" width="200%" height="200%" filterUnits="objectBoundingBox" id="i"><feOffset dy=".5" in="SourceAlpha" result="shadowOffsetOuter1"/><feColorMatrix values="0 0 0 0 0 0 0 0 0 0 0 0 0 0 0 0 0 0 0.06 0" in="shadowOffsetOuter1"/></filter><path d="M13 6.25a.7.7 0 0 1 .18-.43l.14-.14c.1-.1.1-.26 0-.36l-.14-.14a.69.69 0 0 1-.18-.43v-.5c0-.14.1-.25.25-.25h.5c.14 0 .25.1.25.25v.5c0 .14.05.16.12.02l.26-.54a.46.46 0 0 1 .37-.23h1c.14 0 .25.12.25.25 0 .14-.1.25-.25.25h-.5a.25.25 0 0 0-.25.25c0 .14.1.25.25.25h.5c.14 0 .25.1.25.25v1.5c0 .14-.1.25-.25.25h-.5a.25.25 0 0 1-.25-.25v-.5c0-.14.12-.25.25-.25.14 0 .25-.12.25-.25 0-.14-.1-.25-.25-.25h-.5a.25.25 0 0 0-.25.25v1c0 .14-.12.25-.25.25a.25.25 0 0 1-.25-.25v-.5a.25.25 0 0 0-.25-.25c-.14 0-.25.1-.25.25v.5c0 .14-.12.25-.25.25a.25.25 0 0 1-.25-.25v-.5z" id="l"/><filter x="-50%" y="-50%" width="200%" height="200%" filterUnits="objectBoundingBox" id="k"><feOffset dy=".5" in="SourceAlpha" result="shadowOffsetOuter1"/><feColorMatrix values="0 0 0 0 0 0 0 0 0 0 0 0 0 0 0 0 0 0 0.06 0" in="shadowOffsetOuter1"/></filter><path d="M12 4.75a.7.7 0 0 1-.18.43l-.14.14c-.1.1-.1.26 0 .36l.14.14c.1.1.18.29.18.43v.5c0 .14-.1.25-.25.25h-.5a.25.25 0 0 1-.25-.25v-.5c0-.14-.05-.16-.12-.02l-.26.54a.46.46 0 0 1-.37.23h-1A.25.25 0 0 1 9 6.75c0-.14.1-.25.25-.25h.5c.14 0 .25-.12.25-.25 0-.14-.1-.25-.25-.25h-.5A.25.25 0 0 1 9 5.75v-1.5c0-.14.1-.25.25-.25h.5c.14 0 .25.1.25.25v.5c0 .14-.12.25-.25.25a.25.25 0 0 0-.25.25c0 .14.1.25.25.25h.5c.14 0 .25-.12.25-.25v-1c0-.14.12-.25.25-.25.14 0 .25.1.25.25v.5c0 .14.12.25.25.25.14 0 .25-.1.25-.25v-.5c0-.14.12-.25.25-.25.14 0 .25.1.25.25v.5z" id="n"/><filter x="-50%" y="-50%" width="200%" height="200%" filterUnits="objectBoundingBox" id="m"><feOffset dy=".5" in="SourceAlpha" result="shadowOffsetOuter1"/><feColorMatrix values="0 0 0 0 0 0 0 0 0 0 0 0 0 0 0 0 0 0 0.06 0" in="shadowOffsetOuter1"/></filter></defs><g filter="url(#a)" transform="translate(1 1)" fill="none" fill-rule="evenodd"><mask id="f" fill="#fff"><use xlink:href="#b"/></mask><use fill="#000" filter="url(#c)" xlink:href="#b"/><use fill="url(#d)" xlink:href="#b"/><path fill="url(#e)" mask="url(#f)" d="M0 0h21v15H0z"/><g mask="url(#f)"><use fill="#000" filter="url(#g)" xlink:href="#h"/><use fill="url(#d)" xlink:href="#h"/></g><g mask="url(#f)"><use fill="#000" filter="url(#i)" xlink:href="#j"/><use fill="url(#d)" xlink:href="#j"/></g><g mask="url(#f)"><use fill="#000" filter="url(#k)" xlink:href="#l"/><use fill="url(#d)" xlink:href="#l"/></g><g mask="url(#f)"><use fill="#000" filter="url(#m)" xlink:href="#n"/><use fill="url(#d)" xlink:href="#n"/></g><rect mask="url(#f)" width="21" height="15" rx="1.5"/></g></svg>
